X:128
U: ~ = !turn!
%%topmargin 3cm
T:Mist in the Glen
B:Traditional Irish Fiddle Tunes. Randy Miller and Jack Perron.
Z:Transcribed by Ralph Palmer
R:Jig
M:6/8
L:1/8
K:D
DED FEF | ABA d2 A | BdB {/c}BAF Ade fdB |
DED FEF | ABA d2 A | BdB AFA | dAF EFD ::
dfa {/b}afa | baf afd | dfa {/b}afd | dfd ecA |
dfa {/b}afa | baf afd | fdB AFA | BGE AFD :|
